packages/foundations/icons/Health/Run.svg

<svg width="24" height="24" viewBox="0 0 24 24" fill="none" xmlns="http://www.w3.org/2000/svg">
<path d="M14 5.5C15.1046 5.5 16 4.60457 16 3.5C16 2.39543 15.1046 1.5 14 1.5C12.8954 1.5 12 2.39543 12 3.5C12 4.60457 12.8954 5.5 14 5.5Z" fill="#3D474D"/>
<path d="M13.4391 6.67148C13.2853 6.08376 12.6841 5.73202 12.0964 5.88585L11.7928 5.96531C11.1747 6.19996 10.6864 6.73622 10.5436 7.43177L10.2818 8.70742C10.4697 8.6104 10.669 8.53355 10.8768 8.47916L12.3321 8.09826L12.327 8.0756C12.1932 7.48301 12.5651 6.89415 13.1577 6.76034C13.2572 6.73789 13.3565 6.72968 13.4536 6.73436C13.4494 6.7134 13.4446 6.69243 13.4391 6.67148Z" fill="#3D474D"/>
<path d="M13.1577 6.76034C12.5651 6.89415 12.1932 7.48301 12.327 8.0756L12.3321 8.09826L12.6535 8.01415C13.2202 7.86581 13.5676 7.30149 13.4536 6.73436C13.3565 6.72968 13.2572 6.73789 13.1577 6.76034Z" fill="#3D474D"/>
<path fill-rule="evenodd" clip-rule="evenodd" d="M13.8068 11.3995C15.0004 12.5417 16.8019 12.9359 18.4239 12.2586C18.9845 12.0245 19.2491 11.3803 19.015 10.8197C18.7809 10.2591 18.1367 9.99444 17.5761 10.2285C16.5131 10.6725 15.2914 10.1705 14.8475 9.10746C14.801 8.99607 14.7642 8.88085 14.7376 8.76309L14.4911 7.67112C14.4212 6.80866 13.7919 6.05972 12.9016 5.87698C12.5166 5.79797 12.1349 5.83545 11.7928 5.96531L10.3198 6.35085C9.01442 6.6925 7.89793 7.53808 7.21533 8.702L6.05113 10.6871C5.7438 11.2112 5.91947 11.8851 6.44352 12.1924C6.96756 12.4998 7.64152 12.3241 7.94885 11.8001L9.11305 9.81495C9.39221 9.33895 9.7991 8.95666 10.2818 8.70742L9.54364 12.3036C9.387 13.0667 9.68822 13.8174 10.2593 14.2707C9.70224 15.9344 8.26686 17.1622 6.52222 17.4455L4.29991 17.8064C3.61945 17.9169 3.15741 18.5581 3.26792 19.2385C3.37842 19.919 4.01961 20.381 4.70007 20.2705L6.92238 19.9096C9.34341 19.5165 11.3743 17.9317 12.3622 15.7387C12.4109 15.7772 12.4604 15.8149 12.5107 15.8519L13.3819 16.4922C14.0953 17.0166 14.6478 17.7303 14.9766 18.5525L16.3411 21.9636C16.5971 22.6036 17.3235 22.915 17.9636 22.6589C18.6036 22.4029 18.915 21.6765 18.6589 21.0364L17.2945 17.6253C16.7925 16.3705 15.9494 15.2812 14.8604 14.4807L13.9893 13.8404C13.7683 13.678 13.5755 13.4881 13.4134 13.2779C13.43 13.222 13.4444 13.1649 13.4563 13.1067L13.8068 11.3995ZM10.2818 8.70742L10.5436 7.43177C10.6864 6.73622 11.1747 6.19996 11.7928 5.96531L12.0964 5.88585C12.6841 5.73202 13.2853 6.08376 13.4391 6.67148C13.4446 6.69243 13.4494 6.7134 13.4536 6.73436C13.5676 7.30149 13.2202 7.86581 12.6535 8.01415L12.3321 8.09826L10.8768 8.47916C10.669 8.53355 10.4697 8.6104 10.2818 8.70742ZM12.8234 11.7666C12.7953 11.4471 12.8204 11.1199 12.903 10.7977L12.9936 10.4448C13.0007 10.4169 13.0069 10.389 13.0121 10.361C12.9409 10.2306 12.8759 10.0953 12.8174 9.9552C12.7218 9.72632 12.6463 9.48958 12.5916 9.24763L12.5734 9.16688C12.4375 9.05593 12.2759 8.97202 12.0948 8.92555C11.427 8.75422 10.7468 9.15664 10.5755 9.82438L10.4849 10.1773C10.2266 11.1842 10.2701 12.2176 10.5751 13.1648C10.7513 13.7116 11.0146 14.2297 11.3573 14.6974C11.9404 14.7399 12.497 14.5231 12.8965 14.1331L13.202 13.0416C13.2071 13.0234 13.2118 13.0052 13.216 12.987C12.9959 12.6155 12.8612 12.1981 12.8234 11.7666Z" fill="#3D474D"/>
<path d="M12.3364 11.5031C11.6726 11.3173 10.9838 11.7048 10.798 12.3687L10.5751 13.1648C10.7513 13.7116 11.0146 14.2297 11.3573 14.6974C11.9404 14.7399 12.497 14.5231 12.8965 14.1331L13.202 13.0416C13.2071 13.0234 13.2118 13.0052 13.216 12.987C12.9959 12.6155 12.8612 12.1981 12.8234 11.7666C12.6872 11.647 12.5227 11.5552 12.3364 11.5031Z" fill="#3D474D"/>
<path d="M10.798 12.3687C10.9838 11.7048 11.6726 11.3173 12.3364 11.5031C12.5227 11.5552 12.6872 11.647 12.8234 11.7666C12.7953 11.4471 12.8204 11.1199 12.903 10.7977L12.9936 10.4448C13.0007 10.4169 13.0069 10.389 13.0121 10.361C12.9409 10.2306 12.8759 10.0953 12.8174 9.9552C12.7218 9.72632 12.6463 9.48958 12.5916 9.24763L12.5734 9.16688C12.4375 9.05593 12.2759 8.97202 12.0948 8.92555C11.427 8.75422 10.7468 9.15664 10.5755 9.82438L10.4849 10.1773C10.2266 11.1842 10.2701 12.2176 10.5751 13.1648L10.798 12.3687Z" fill="#3D474D"/>
</svg>

<svg xmlns="http://www.w3.org/2000/svg" fill="none" viewBox="0 0 24 24" width="100%" height="100%">
  <path fill="#3D474D" d="M14 5.5a2 2 0 1 0 0-4 2 2 0 0 0 0 4Zm-.56 1.171a1.1 1.1 0 0 0-1.344-.785l-.303.08a1.996 1.996 0 0 0-1.25 1.466l-.261 1.275c.188-.097.387-.173.595-.228l1.455-.38-.005-.023a1.1 1.1 0 0 1 1.127-1.342 1.094 1.094 0 0 0-.015-.063Z"/>
  <path fill="#3D474D" d="M13.158 6.76a1.1 1.1 0 0 0-.831 1.316l.005.022.321-.084a1.1 1.1 0 0 0 .8-1.28 1.102 1.102 0 0 0-.295.026Z"/>
  <path fill="#3D474D" fill-rule="evenodd" d="M13.807 11.4a4.287 4.287 0 0 0 4.617.859 1.1 1.1 0 1 0-.848-2.03 2.086 2.086 0 0 1-2.838-1.466l-.247-1.092a1.998 1.998 0 0 0-2.698-1.706l-1.473.386a5.094 5.094 0 0 0-3.105 2.351l-1.164 1.985A1.1 1.1 0 1 0 7.95 11.8l1.164-1.985c.28-.476.686-.858 1.169-1.108l-.738 3.597a1.997 1.997 0 0 0 .715 1.967 4.743 4.743 0 0 1-3.737 3.174l-2.222.361a1.248 1.248 0 1 0 .4 2.464l2.222-.36a7.24 7.24 0 0 0 5.44-4.171c.049.038.098.076.149.113l.87.64a4.743 4.743 0 0 1 1.596 2.06l1.364 3.412a1.248 1.248 0 1 0 2.318-.928l-1.364-3.41a7.24 7.24 0 0 0-2.435-3.145l-.87-.64a2.88 2.88 0 0 1-.577-.563 2.03 2.03 0 0 0 .043-.171l.35-1.707Zm-3.525-2.693.262-1.275a1.996 1.996 0 0 1 1.249-1.467l.303-.08a1.1 1.1 0 0 1 .557 2.13l-.32.083-1.456.381a2.893 2.893 0 0 0-.595.228Zm2.541 3.06a2.882 2.882 0 0 1 .08-.97l.09-.352c.008-.028.014-.056.02-.084a4.319 4.319 0 0 1-.421-1.113l-.019-.081a1.248 1.248 0 0 0-1.998.657l-.09.353a5.377 5.377 0 0 0 .872 4.52 1.997 1.997 0 0 0 1.54-.564l.305-1.091.014-.055a2.89 2.89 0 0 1-.393-1.22Z" clip-rule="evenodd"/>
  <path fill="#3D474D" d="M12.336 11.503a1.248 1.248 0 0 0-1.538.866l-.223.796a5.39 5.39 0 0 0 .782 1.532 1.997 1.997 0 0 0 1.54-.564l.305-1.091.014-.055a2.89 2.89 0 0 1-.393-1.22c-.136-.12-.3-.212-.487-.264Z"/>
  <path fill="#3D474D" d="M10.798 12.369a1.248 1.248 0 0 1 2.025-.602 2.882 2.882 0 0 1 .08-.97l.09-.352c.008-.028.014-.056.02-.084a4.319 4.319 0 0 1-.421-1.113l-.019-.081a1.248 1.248 0 0 0-1.998.657l-.09.353a5.377 5.377 0 0 0 .09 2.988l.223-.796Z"/>
</svg>
